!!!COM: Music21
!!!OTL: slide_Hop--Skip--Jump
!!!OMV: slide_Hop--Skip--Jump
**kern
*clefG2
*k[f#c#]
*M12/8
=1
16f#LL
16eJJ
=
4d
8f#
4a
8dd
4b
8a
4f#
8e
=
8dL
8e
8f#J
4a
8dd
4.ff#
8ff#L
8gg
8ff#J
=
4ee
8dd
4b
8dd
4a
8f#
4d
8e
=
8f#L
8e
8dJ
4a
8f#
4.e
4e
8ryy
!!linebreak:original
=||
*M12/8
16f#LL
16eJJ
=
4d
8f#
4a
8dd
4b
8a
4f#
8e
=
8dL
8e
8f#J
4a
8dd
4.ff#
8ff#L
8gg
8ff#J
=
4ee
8dd
4b
8dd
4a
8f#
4d
8e
=
8f#L
8e
8dJ
4a
8f#
4.e
4e
8ryy
!!linebreak:original
=||
8ff#
1ryy
4.ryy
=
4gg
8ff#
8eeL
8dd
8bJ
8aL
8f#
8aJ
4dd
8ee
=
4ff#
8ee
8eeL
8dd
8eeJ
4ff#
8bb
4bb
8aa
=
4gg
8ff#
8eeL
8dd
8bJ
8aL
8f#
8aJ
4dd
8ee
=
8ff#L
8eeJ
8ddL
8b
8a
8f#J
4.e
4e
8ryy
!!linebreak:original
=||
8ff#
1ryy
4.ryy
=
4gg
8ff#
8eeL
8dd
8bJ
8aL
8f#
8aJ
4dd
8ee
=
4ff#
8ee
8eeL
8dd
8eeJ
4ff#
8bb
4bb
8aa
=
4gg
8ff#
8eeL
8dd
8bJ
8aL
8f#
8aJ
4dd
8ee
=
8ff#L
8eeJ
8ddL
8b
8a
8f#J
4.e
4e
8ryy
=||
*-
